icons/shield-star-fill.svg

<svg viewBox="0 0 24 24" fill="currentColor" xmlns="http://www.w3.org/2000/svg">
    <path d="M3.78307 2.82598L12 1L20.2169 2.82598C20.6745 2.92766 21 3.33347 21 3.80217V13.7889C21 15.795 19.9974 17.6684 18.3282 18.7812L12 23L5.6718 18.7812C4.00261 17.6684 3 15.795 3 13.7889V3.80217C3 3.33347 3.32553 2.92766 3.78307 2.82598ZM12 13.5L14.9389 15.0451L14.3776 11.7725L16.7553 9.45492L13.4695 8.97746L12 6L10.5305 8.97746L7.24472 9.45492L9.62236 11.7725L9.06107 15.0451L12 13.5Z"/>
</svg>

<svg xmlns="http://www.w3.org/2000/svg" viewBox="0 0 24 24">
    <g>
        <path fill="none" d="M0 0h24v24H0z"/>
        <path d="M3.783 2.826L12 1l8.217 1.826a1 1 0 0 1 .783.976v9.987a6 6 0 0 1-2.672 4.992L12 23l-6.328-4.219A6 6 0 0 1 3 13.79V3.802a1 1 0 0 1 .783-.976zM12 13.5l2.939 1.545-.561-3.272 2.377-2.318-3.286-.478L12 6l-1.47 2.977-3.285.478 2.377 2.318-.56 3.272L12 13.5z"/>
    </g>
</svg>
